img/logos/jetbrains.svg

<?xml version="1.0" encoding="UTF-8" standalone="no"?>
<svg width="512px" height="186px" viewBox="0 0 512 186" version="1.1" xmlns="http://www.w3.org/2000/svg" xmlns:xlink="http://www.w3.org/1999/xlink" preserveAspectRatio="xMinYMin meet">
	<g>
		<path d="M507.575794,62.4063134 C496.880684,56.4067236 492.564422,54.2245242 486.236626,54.2245242 C480.384364,54.2245242 477.56326,57.2235898 477.56326,61.8607636 C477.56326,75.7679088 511.06498,71.9490598 511.06498,104.399066 C511.06498,122.120684 501.296136,132.757447 484.706462,132.757447 C474.549606,132.757447 469.754894,128.390131 462.330166,123.484558 L462.330166,103.577823 C473.025276,112.305162 477.341538,115.577003 485.412468,115.577003 C491.635236,115.577003 494.094586,112.305162 494.094586,106.849664 C494.094586,91.5844786 460.805834,97.3098348 460.805834,63.770188 C460.805834,47.6808434 467.46767,37.0469972 484.706462,37.0469972 C493.004946,37.0469972 498.181834,39.2262792 507.575794,44.4119202 L507.575794,62.4063134" fill="#0C5789"></path>
		<path d="M248.81012,37.8813676 C264.085516,37.8813676 270.798404,50.6944958 270.798404,64.6045584 C270.798404,74.6943134 266.649892,82.3305528 258.13698,87.237584 C255.768068,88.2455384 254.54277,88.5547806 252.774838,88.9880114 L278.43902,130.861151 L260.377528,130.861151 L236.204126,92.9614814 L236.204126,130.861151 L219.887226,130.861151 L219.887226,37.8813676 L248.81012,37.8813676 L248.81012,37.8813676 Z M236.204126,76.0552706 L243.78931,76.0552706 C249.026006,76.0552706 254.046814,73.3275214 254.046814,65.4214246 C254.046814,58.3292764 250.335908,54.7904958 243.351704,54.7904958 L236.204126,54.7904958 L236.204126,76.0552706 L236.204126,76.0552706 Z" fill="#0C5789"></path>
		<path d="M356.204672,130.861151 L338.580786,130.861151 L332.473254,112.322667 L303.550358,112.322667 L298.090484,130.861151 L280.683944,130.861151 L308.350906,37.8828262 L325.490508,37.8828262 L356.204672,130.861151 L356.204672,130.861151 Z M317.25037,59.9673846 L308.572626,96.233322 L327.014838,96.233322 L317.25037,59.9673846 L317.25037,59.9673846 Z" fill="#0C5789"></path>
		<path d="M361.655794,37.8828262 L377.96832,37.8828262 L377.96832,130.86261 L361.655794,130.86261 L361.655794,37.8828262 L361.655794,37.8828262 Z" fill="#0C5789"></path>
		<path d="M453.712228,130.861151 L440.236854,130.861151 L405.908056,71.149698 L405.908056,130.861151 L389.589698,130.861151 L389.589698,37.8828262 L404.37935,37.8828262 L437.389492,94.5966724 L437.389492,37.8828262 L453.712228,37.8828262 L453.712228,130.861151" fill="#0C5789"></path>
		<path d="M196.416912,79.6028034 C202.750542,75.7839544 206.677334,68.9674986 206.677334,61.0614018 C206.677334,56.9391452 205.870678,52.4434644 203.829972,48.5122962 C197.842051,53.8190086 191.234188,59.589584 189.237242,61.3268832 C189.549402,62.4004786 189.708399,63.516376 189.708399,64.6045584 C189.708399,69.5115898 187.09151,74.6943134 180.318815,74.6943134 L174.974177,74.6943134 L174.974177,52.5470314 L194.452057,39.7805812 C191.654291,38.593208 188.302222,37.8813676 184.251442,37.8813676 L158.657276,37.8813676 L158.657276,130.861151 L185.939145,130.861151 C207.77135,130.861151 212.354552,114.232091 212.354552,103.595328 C212.354552,92.6872478 207.11494,83.1430428 196.416912,79.6028034 M180.978142,113.689459 L174.974177,113.689459 L174.974177,91.8732992 L183.592114,91.8732992 C190.144547,91.8732992 194.946553,95.4135384 194.946553,102.229994 C194.946553,110.417618 191.238564,113.689459 180.978142,113.689459" fill="#0C5789"></path>
		<path d="M219.62466,26.9543248 C218.597744,26.3154188 206.664206,33.7416068 199.162165,38.9695498 L196.405242,40.8789744 L177.208889,53.765037 L177.208889,68.0456068 C181.323852,65.2420056 184.639453,62.6134472 187.014199,60.232866 L201.377914,47.9302792 C201.377914,47.9302792 208.559042,41.477037 212.325378,37.704866 L213.728638,36.3978804 C214.778894,35.4497322 215.493652,34.8079088 215.493652,33.919567 C215.493652,33.8743476 215.490736,33.8218348 215.4849,33.7751566 C215.44114,33.2733676 220.076854,27.2373106 219.62466,26.9543248" fill="#E9822C"></path>
		<path d="M144.337322,87.6474758 L156.024342,79.7107464 L156.024342,65.4126724 L145.545117,72.2451738 C145.545117,72.2451738 136.212422,78.3045698 132.950792,80.4255042 C133.192934,78.5817208 133.443829,76.6387464 133.443829,76.6387464 C135.086313,64.4805698 136.600433,52.3428148 136.600433,44.2733448 C136.600433,40.3655156 136.24743,37.4087522 135.380969,35.8669174 C134.76686,34.7729002 133.828923,34.0683532 132.673641,33.8291282 C131.142017,33.5169686 129.35804,34.0537664 127.651373,35.3461652 C122.296524,39.0745754 119.637333,49.9826552 119.637333,68.4963418 C119.637333,74.4828034 119.927613,81.2948832 120.480456,88.8829858 C119.857595,89.4431226 116.781219,92.2204672 116.781219,92.2204672 C116.820604,92.1825414 111.481801,96.8824388 111.481801,96.8824388 C111.475966,96.8853562 111.341766,97.0633162 111.251328,97.177094 C106.303453,101.547328 103.187692,104.000843 102.000319,104.464707 C100.524125,105.048182 99.2258918,105.176547 98.0603988,105.068604 C104.777664,100.10906 110.262336,89.4985528 110.262336,83.1911794 C110.262336,82.4676696 110.189402,81.7966724 110.034781,81.2029858 C108.940764,76.8867236 106.764399,73.7505414 103.733242,72.1284786 C100.766268,70.5443418 97.1749744,70.4801596 93.06147,71.9446838 L91.4539944,72.5952592 C84.0438518,75.950245 61.5041824,88.6175042 54.5141424,92.5676354 C55.3397606,82.6806382 59.3992934,37.6042166 60.5297778,13.8275783 C61.2649572,-1.52950427 60.5297778,7.99282052 60.5297778,5.01125926 C60.5297778,-6.15646724 46.5001026,5.01709402 38.7325812,12.7831567 C35.4724102,16.0433276 25.284923,25.351225 28.9754074,32.434621 C32.9401254,40.0562736 37.1265642,37.507943 39.320433,50.6244786 C43.1757492,73.6921938 40.2306552,97.3375498 40.23649,98.863339 C38.9703476,99.455567 29.3050712,104.006678 29.3050712,104.006678 C12.6555897,111.708558 0,117.563738 0,127.176501 C0,128.676034 0.309242166,130.260171 0.953982906,131.961003 C14.7706895,168.101493 33.6052878,187.542906 41.0270998,185.576593 C51.7951452,182.710268 52.2342108,168.562439 52.8964558,147.154712 C53.2275784,136.477105 53.6126724,124.387487 55.2551566,110.786667 C56.123077,110.241117 74.2181196,96.7701196 77.5818576,94.6156354 C75.968547,97.8976866 75.983134,101.068877 75.983134,102.777003 C75.983134,107.033459 76.592866,110.541607 77.4593276,112.350382 C78.913641,115.396125 80.2045812,117.668764 83.5289344,119.165379 C87.7518404,121.181288 91.413151,121.741425 98.6103248,118.914484 C101.845698,117.642507 107.385801,113.803236 113.544387,108.639476 C114.771145,110.741447 120.10849,119.929732 120.10849,119.929732 L124.998017,128.261766 C127.203556,132.182724 130.70441,133.294245 134.604946,131.301675 C137.569003,129.815271 139.526564,128.515578 140.111499,126.604695 C140.234028,126.205014 140.285083,125.814085 140.285083,125.426074 C140.285083,124.13951 139.710359,122.920046 139.164809,121.945641 C133.550313,111.953618 133.17543,103.245242 133.17543,96.622792 C133.17543,96.1939374 133.17543,95.7767522 133.178348,95.368319 C134.138165,94.6987806 144.337322,87.6474758 144.337322,87.6474758 M34.3871452,156.086268 C29.9673162,152.508103 27.8726382,149.485698 24.6401824,141.661288 C19.1700969,128.429516 26.74653,124.340809 40.4727978,116.554325 C38.8390656,130.642348 37.699829,159.404786 34.3871452,156.086268 M89.0734132,99.554758 C88.8823248,94.5952136 87.8495726,88.2061538 94.2342564,84.8161596 C96.725698,83.4624958 98.177094,84.3231226 99.0158404,85.166245 C100.696251,86.85249 96.9299146,94.659396 89.0734132,99.554758" fill="#E9822C"></path>
	</g>
</svg>

<svg width="512" height="186" viewBox="0 0 512 186" xmlns="http://www.w3.org/2000/svg" preserveAspectRatio="xMinYMin meet"><path d="M507.576 62.406c-10.695-6-15.012-8.18-21.34-8.18-5.852 0-8.673 2.998-8.673 7.635 0 13.908 33.502 10.09 33.502 42.54 0 17.72-9.77 28.357-26.36 28.357-10.155 0-14.95-4.367-22.375-9.272v-19.907c10.695 8.727 15.012 12 23.082 12 6.223 0 8.683-3.273 8.683-8.728 0-15.266-33.29-9.54-33.29-43.08 0-16.09 6.663-26.723 23.9-26.723 8.3 0 13.477 2.18 22.87 7.365v17.994M248.81 37.88c15.276 0 21.988 12.814 21.988 26.725 0 10.09-4.148 17.726-12.66 22.633-2.37 1.008-3.595 1.317-5.363 1.75l25.664 41.873h-18.062l-24.174-37.9v37.9h-16.317V37.88h28.923zm-12.606 38.175h7.585c5.236 0 10.257-2.727 10.257-10.634 0-7.09-3.71-10.63-10.695-10.63h-7.148v21.265zM356.205 130.86H338.58l-6.107-18.537H303.55l-5.46 18.538h-17.406l27.667-92.977h17.14l30.715 92.978zM317.25 59.968l-8.677 36.266h18.442l-9.765-36.266zM361.656 37.883h16.312v92.98h-16.312v-92.98zM453.712 130.86h-13.475l-34.33-59.71v59.71H389.59V37.884h14.79l33.01 56.714V37.883h16.322v92.978M196.417 79.603c6.334-3.82 10.26-10.636 10.26-18.542 0-4.12-.806-8.617-2.847-12.548-5.988 5.307-12.596 11.078-14.593 12.815.312 1.073.47 2.19.47 3.278 0 4.907-2.615 10.09-9.388 10.09h-5.346V52.546l19.478-12.766c-2.798-1.187-6.15-1.9-10.2-1.9h-25.595v92.98h27.282c21.83 0 26.415-16.628 26.415-27.265 0-10.908-5.24-20.452-15.938-23.992m-15.44 34.086h-6.003V91.872h8.618c6.553 0 11.355 3.54 11.355 10.357 0 8.188-3.708 11.46-13.97 11.46" fill="#0C5789"/><path d="M219.625 26.954c-1.027-.64-12.96 6.788-20.463 12.016l-2.757 1.91-19.196 12.885v14.28c4.114-2.803 7.43-5.432 9.804-7.812l14.364-12.303s7.18-6.453 10.947-10.225l1.404-1.307c1.05-.948 1.764-1.59 1.764-2.478 0-.046-.003-.098-.01-.145-.043-.502 4.593-6.538 4.14-6.82M144.337 87.647l11.687-7.936V65.414l-10.48 6.832s-9.332 6.06-12.593 8.18c.243-1.843.494-3.786.494-3.786 1.642-12.16 3.156-24.297 3.156-32.367 0-3.907-.353-6.864-1.22-8.406-.613-1.094-1.55-1.8-2.706-2.038-1.532-.313-3.316.224-5.023 1.516-5.353 3.73-8.013 14.637-8.013 33.15 0 5.987.29 12.8.843 20.387l-3.7 3.337c.04-.037-5.298 4.662-5.298 4.662-.006.003-.14.18-.23.295-4.95 4.37-8.064 6.824-9.252 7.288-1.476.583-2.774.712-3.94.604 6.718-4.96 12.202-15.57 12.202-21.88 0-.722-.073-1.393-.227-1.987-1.094-4.316-3.27-7.452-6.302-9.075-2.967-1.584-6.558-1.648-10.672-.183l-1.606.65c-7.41 3.355-29.95 16.023-36.94 19.973.826-9.887 4.885-54.964 6.016-78.74.735-15.358 0-5.835 0-8.817 0-11.166-14.03.007-21.797 7.773-3.26 3.26-13.448 12.568-9.758 19.652 3.965 7.62 8.152 5.073 10.345 18.19 3.856 23.067.91 46.713.916 48.238-1.266.593-10.93 5.144-10.93 5.144C12.655 111.71 0 117.564 0 127.177c0 1.5.31 3.083.954 4.784 13.817 36.14 32.65 55.583 40.073 53.617 10.768-2.867 11.207-17.015 11.87-38.422.33-10.678.716-22.768 2.358-36.368.868-.546 18.963-14.017 22.327-16.17-1.613 3.28-1.6 6.452-1.6 8.16 0 4.256.61 7.765 1.477 9.573 1.454 3.046 2.745 5.32 6.07 6.815 4.222 2.016 7.883 2.576 15.08-.25 3.236-1.272 8.776-5.112 14.934-10.276 1.227 2.1 6.564 11.29 6.564 11.29l4.89 8.332c2.206 3.92 5.706 5.032 9.607 3.04 2.964-1.487 4.922-2.786 5.506-4.697.124-.4.175-.79.175-1.18 0-1.285-.575-2.505-1.12-3.48-5.615-9.99-5.99-18.7-5.99-25.322 0-.43 0-.846.003-1.255.96-.67 11.16-7.72 11.16-7.72m-109.95 68.438c-4.42-3.578-6.515-6.6-9.748-14.425-5.47-13.23 2.107-17.32 15.833-25.106-1.634 14.088-2.773 42.85-6.086 39.532m54.686-56.53c-.19-4.96-1.223-11.35 5.16-14.74 2.493-1.354 3.944-.493 4.783.35 1.68 1.686-2.086 9.493-9.943 14.39" fill="#E9822C"/></svg>
